svgs/thin/square-u.svg

<svg xmlns="http://www.w3.org/2000/svg" viewBox="0 0 448 512"><!-- Font Awesome Pro 6.0.0-alpha2 by @fontawesome - https://fontawesome.com License - https://fontawesome.com/license (Commercial License) --><path d="M384 32H64C28.654 32 0 60.654 0 96V416C0 451.346 28.654 480 64 480H384C419.348 480 448 451.346 448 416V96C448 60.654 419.348 32 384 32ZM432 416C432 442.467 410.467 464 384 464H64C37.533 464 16 442.467 16 416V96C16 69.533 37.533 48 64 48H384C410.467 48 432 69.533 432 96V416ZM328 128C323.578 128 320 131.578 320 136V277.812C320 327.547 276.938 368 224 368S128 327.547 128 277.812V136C128 131.578 124.422 128 120 128S112 131.578 112 136V277.812C112 336.359 162.25 384 224 384S336 336.359 336 277.812V136C336 131.578 332.422 128 328 128Z"/></svg>

<svg xmlns="http://www.w3.org/2000/svg" viewBox="0 0 448 512"><!--! Font Awesome Pro 6.3.0 by @fontawesome - https://fontawesome.com License - https://fontawesome.com/license (Commercial License) Copyright 2023 Fonticons, Inc. --><path d="M384 32H64C28.65 32 0 60.65 0 96v320c0 35.35 28.65 64 64 64h320c35.35 0 64-28.65 64-64V96C448 60.65 419.3 32 384 32zM432 416c0 26.47-21.53 48-48 48H64c-26.47 0-48-21.53-48-48V96c0-26.47 21.53-48 48-48h320c26.47 0 48 21.53 48 48V416zM328 128C323.6 128 320 131.6 320 136v141.8C320 327.5 276.9 368 224 368s-96-40.45-96-90.19V136C128 131.6 124.4 128 120 128S112 131.6 112 136v141.8C112 336.4 162.3 384 224 384s112-47.64 112-106.2V136C336 131.6 332.4 128 328 128z"/></svg>
